X: 19186
T: Isabel's Favourite
R: jig
M: 6/8
K: Gmajor
d/c/|:"G"B3/2A/B "G"GAB|"D7"cBc "Am"ABc|"D"d3/2e/f "C"gfe|"D7"dec "G"B2 c/d/|
"C"efg "D"agf|"Em"g3/2a/d "C"e2 f/g/|"D"fed "Am"cBA|"D7"GAF "G"G2 d/c/:|
|:"G"BGG "G"GAG|"D7"ABc "G"d2 c/B/|"D"ADD DED|"Em"GBc "D"d2 c/d/|
"C"efg "Em"gfe|"G"d3/2A/G "D"d2 f/g/|"C"gfe "Em"dcB|"G"G3/2A/"D"F "G"G2 d/c/:|

